X:203
T:B203-  How vile are the sorid intrigues (of the town)
Q:1/4=120
L:1/4
M:6/4
K:Gm
D.|G3/2A/2Bc/2A3/2B|A3/2B/2G^F3|(G/2A/2)B(A/2B/2)cB|\
A/2D3/2^FG2A|B3/2c/2dd3/2B/2d|c/2A3/2cB2A|\
(B/2c/2)dB(d/2e/2)fd|B2AB3||(d/2e/2)fdf3/2e/2d|\
c/2A3/2cB2A|B/2A3/2BA2G|(^F/2G/2)AFD3|(D/2E/2)FF(G/2A/2)BB|\
A2Gf3|d3/2c/2Bc/2A3/2B|A2Gg3|f3/2e/2dg/2d3/2(c/2B/2)|\
A2GG3|]

